X:1
T:Old Time Religion
T:Old Time Religion
T:African-American Spiritual
T:Public Domain Courtesy of the Cyber Hymnal™
C:African-American Spiritual
Z:Public Domain
Z:Courtesy of the Cyber Hymnal™
%%score 1 ( 2 3 )
L:1/8
Q:1/4=100
M:2/4
K:Ab
V:1 treble 
V:2 bass 
V:3 bass 
V:1
 [CE][DF] | [CA]2 [CA]>[CA] | [DF][CE] [EA][FA] | [EB]2 [EB]>[Ec] | [DB][CA] [EA][EB] | %5
 [Ec]2 [Ec]>[Ec] | [FB][FA] [DA][DF] | [CE]>[CA] [CA][DB] | [CA]2 |] %9
V:2
 [A,,A,][A,,A,] | [A,,A,]2 [A,,A,]>[A,,A,] | [A,,A,][A,,A,] [C,A,][C,A,] | [E,G,]2 [E,G,]>[E,A,] | %4
 [A,,A,][A,,E,] [C,A,][E,G,] | A,2 [A,,A,]>[C,A,] | [D,A,][D,A,] [D,F,][D,A,] | %7
 [E,A,]>[E,A,] [E,A,][E,G,] | [A,,A,]2 |] %9
V:3
 x2 | x4 | x4 | x4 | x4 | A,2 x2 | x4 | x4 | x2 |] %9

